X: 13791
T: Forty-Two Pound Cheque, The
R: polka
M: 2/4
K: Dmajor
|:Ad Bd/B/|AD FA|GE A>B|A>G FD|
Ad Bd/B/|AD FA|GE A/B/A/G/|FD D2:|
|:Af fe/f/|g>f ed|c/B/A ef|e/f/e/d/ cA|
Af fe/f/|g>f ed|c/B/A Bc|d2 dB:|

